svg/regular/bx-calendar-x.svg

<svg xmlns="http://www.w3.org/2000/svg" width="24" height="24"><path d="m8.293 16.293 1.414 1.414L12 15.414l2.293 2.293 1.414-1.414L13.414 14l2.293-2.293-1.414-1.414L12 12.586l-2.293-2.293-1.414 1.414L10.586 14z"/><path d="M19 4h-2V2h-2v2H9V2H7v2H5c-1.103 0-2 .897-2 2v14c0 1.103.897 2 2 2h14c1.103 0 2-.897 2-2V6c0-1.103-.897-2-2-2zm.002 16H5V8h14l.002 12z"/></svg>

<svg xmlns="http://www.w3.org/2000/svg" width="24" height="24" viewBox="0 0 24 24"><path d="M8.293 16.293L9.707 17.707 12 15.414 14.293 17.707 15.707 16.293 13.414 14 15.707 11.707 14.293 10.293 12 12.586 9.707 10.293 8.293 11.707 10.586 14z"/><path d="M19,4h-2V2h-2v2H9V2H7v2H5C3.897,4,3,4.897,3,6v2v12c0,1.103,0.897,2,2,2h14c1.103,0,2-0.897,2-2V8V6 C21,4.897,20.103,4,19,4z M19.002,20H5V8h14L19.002,20z"/></svg>
